X:6099
T:Sleepy Maggie
O:england
R:reel
H:Related to "Jenny's Chickens", #75.
H:Also related to #691
M:C|
K:Bdor
f2de fBde|f2df eAce|f2de fBde|fgaf eAce:|
|:fBdB fBde|fBdB eAce|1 fBdB fBde|fgaf eAce:|2 dcBc defg|abaf eAce||
|:fBbB fBde|fBbB aAce|fBbB aBgB|fBgB aAce:|


